X:1
T:Title
%%score { ( 1 3 ) | ( 2 4 ) }
L:1/8
M:4/4
K:G
V:1 treble nm="Grand Piano"
V:3 treble 
V:2 treble 
V:4 treble 
V:1
 z4 z2 z[Q:1/4=100] B | d2 d2 G3 A | G2 F2 [Fc]2 [Fc]2 | [Fc]3 [FB] [FA][FB][Fc][Fd] | %4
 [_Be]4 [=Bd]3 B | d2 d2 G3 A | G2 F2 [Fc]2 [Fc]2 | [EFc]3 [DFB] [CFA][B,F^G][CFA][DFB] | %8
[M:19/16] [CFA]/-[CFA]/-[CFA]/-[CFA]/-[CFA]-<[CFA][G,B,DG]/-[G,B,DG]/-[G,B,DG]/-[G,B,DG]/-[G,B,DG]/-[G,B,DG]-<[G,B,DG] z | %9
[M:4/4] e2 e2 G3 A | [GB]2 c2 [EGB]4 | [^Dc]4 D-[D-A][D-G][DF] | G6 B2 | e2 e2 G3 A | %14
 [GB]2 [Ac]2 B3 B | ^c3 c ccee | [Fd]6 [Ee]2 | [Gd]3 [B,D] [B,D][EFc][DFB][CFA] | [B,G]6 z2 | %19
[M:6/8] B3 ._B3 | G6 | .G3 .E3 | E3[K:bass] D3 | B3 ._B3 | e6 | .B3 .G3 | [FA]6 | B3 ._B3 | G6 | %29
 .G3 .E3 | E3[K:bass] D3 | [DGB]3 [Gc]-[_B,Gc]^c | [Gd]3- [Gd]2 [Ge] | [Gd]BG DEF | %34
[M:5/8] [CFA]3 [B,G]2 |] %35
V:2
 z4 z2 z [G,DG] | [G,B,G]2 [G,B,G]2 [G,B,D]3 [G,B,D] | [A,CD]2 [A,CD]2 [D,D]2 [D,D]2 | %3
 [D,D]3 [D,D] [D,D][D,D][D,D][D,D] | [G,^C]4 [G,D]3 [G,DG] | %5
 [G,B,G]2 [G,B,G]2[K:bass] [G,B,D]3 [G,B,D] | [A,CD]2 [A,CD]2 [D,D]2 [D,D]2 | D,3 D, D,D,D,D, | %8
[M:19/16] D,/-D,/-D,/-D,/-D,-<D,G,,/-G,,/-G,,/-G,,/-G,,/-G,,-<G,,[K:treble]B | %9
[M:4/4][K:bass] [E,B,]4 [E,B,E]4 | z2 A2 z2 z[K:treble] B | z2 z B[K:bass] z F, B,2 | [B,E]6 z2 | %13
 [E,B,]4 [E,B,E]4 | [E,E]4 [E,E]4 | z4 E2 z2 | [D,A,D]6 [C,C]2 | [D,B,]3 D, D,D,D,D, | G,,6 z2 | %19
[M:6/8] z [G,B,][G,B,] [G,^CE][G,C][G,B,D] | z [G,B,][G,B,] [G,B,][G,B,][G,B,D] | %21
 z A,[A,C] [A,C]A,[A,C] | z [D,G,][D,G,] [D,G,B,][D,G,][D,G,] | %23
 z [G,B,][G,B,] [G,^CE][G,C][G,B,D] | z [G,B,][G,B,] [G,B,][G,B,][G,B,E] | %25
 A,[K:treble][A,^C][A,CG] [A,C]A,A, | z F,A, z CA, | z [G,B,][G,B,] [G,^CE][G,C][G,B,D] | %28
 z [G,B,][G,B,] [G,B,][G,B,][G,D] | z A,[A,C] [A,C]A,[A,C] | z [D,G,][D,G,] [D,G,B,][D,G,][D,G,] | %31
 G,F,=F, E,^D,G | [D,B,]3- [D,B,]2 [^C,_B,] | [D,B,]B,G, D,E,F, |[M:5/8] D,3 G,2 |] %35
V:3
 x8 | x8 | x8 | x8 | x8 | x8 | x8 | x8 |[M:19/16] x19/2 |[M:4/4] G4 z4 | x8 | z4 .[A,F]2 z2 | x8 | %13
 G4 z4 | z4 G4 | x8 | x8 | x8 | x8 |[M:6/8] z DD z E=B | z DD DDG | z CF z CF | %22
 z[K:bass] B,B, z B,B, | z DD z E=B | z EE EEB | [^CG]GA z C[CGB] | .[A,D]3 D3 | z DD z E=B | %28
 z DD DDG | z CF z CF | z[K:bass] B,B, z B,B, | z3 .C3 | x6 | x6 |[M:5/8] x5 |] %35
V:4
 x8 | x8 | x8 | x8 | x8 | x4[K:bass] x4 | x8 | x8 |[M:19/16] x17/2[K:treble] x | %9
[M:4/4][K:bass] x8 | [E,E]4 E,4[K:treble] | [B,,A,]4[K:bass] B,,4 | x8 | x8 | x8 | %15
 [A,EG]4 [A,G]2- [A,^CG]2 | x8 | x8 | x8 |[M:6/8] G,,6 | G,,6 | D,6 | G,,6 | G,,6 | E,,6 | %25
 A,,6[K:treble] | .D,3 .D,3 | G,,6 | G,,6 | D,6 | G,,6 | x6 | x6 | x6 |[M:5/8] x5 |] %35

